format-font-size-decrease.svg

<svg fill="currentColor" viewBox="0 0 24 24"><path d="M5.12 14 7.5 7.67 9.87 14M6.5 5 1 19h2.25l1.12-3h6.25l1.13 3H14L8.5 5zM18 17l5-5.07-1.41-1.43L19 13.1V7h-2v6.1l-2.59-2.6L13 11.93z"/></svg>

<svg  viewBox="0 0 24 24" fill="currentColor"><path  d="M5.12,14L7.5,7.67L9.87,14M6.5,5L1,19H3.25L4.37,16H10.62L11.75,19H14L8.5,5H6.5M18,17L23,11.93L21.59,10.5L19,13.1V7H17V13.1L14.41,10.5L13,11.93L18,17Z"/></svg>
